X:232
T:Upton-on-Severn Stick Dance, The
R:Jig
O:England
M:6/8
K:G
P:A
d|\
dBB BAG|AGA BGE|DED GBd|edB A2d|
dBB BAG|AGA BGE|DED GBd|[1 edB G2:|[2 edB G3|
P:B
GBd g2d|edc BAG|GBd g2d|edB A3|\
GBd g2d|edc Bcd|ege dBG|AGA G3:|
